src/pos-icons/router-network.svg

<svg height="24" viewBox="0 0 24 24" width="24" xmlns="http://www.w3.org/2000/svg"><path d="m5 9c-1.1 0-2 .9-2 2v4c0 1.11.9 2 2 2h6v2h-1c-.55 0-1 .45-1 1h-7v2h7c0 .55.45 1 1 1h4c.55 0 1-.45 1-1h7v-2h-7c0-.55-.45-1-1-1h-1v-2h6c1.11 0 2-.89 2-2v-4c0-1.1-.89-2-2-2zm1 3h2v2h-2zm3.5 0h2v2h-2zm3.5 0h2v2h-2z"/></svg>

<?xml version="1.0" encoding="UTF-8"?><!DOCTYPE svg PUBLIC "-//W3C//DTD SVG 1.1//EN" "http://www.w3.org/Graphics/SVG/1.1/DTD/svg11.dtd"><svg xmlns="http://www.w3.org/2000/svg" xmlns:xlink="http://www.w3.org/1999/xlink" version="1.1" id="mdi-router-network" width="24" height="24" viewBox="0 0 24 24"><path d="M5 9C3.9 9 3 9.9 3 11V15C3 16.11 3.9 17 5 17H11V19H10C9.45 19 9 19.45 9 20H2V22H9C9 22.55 9.45 23 10 23H14C14.55 23 15 22.55 15 22H22V20H15C15 19.45 14.55 19 14 19H13V17H19C20.11 17 21 16.11 21 15V11C21 9.9 20.11 9 19 9H5M6 12H8V14H6V12M9.5 12H11.5V14H9.5V12M13 12H15V14H13V12Z" /></svg>
